X:392
T:Salty
C:Kenny Baker
N:Transcribed by David Peters Transcribed by Kim Davis and Mike Stangeland Special thanks to Kristi Sberna
R:bluegrass
L:1/8
Q:1/4=210
M:4/4
K:G
z7/1d |: "G"ga bg dg ed | fg ed Bd ef | ga/g/ ed Bd/B/ AG | EG/E/ DB, "Gdim"^A,3A,/=A,/ | 
"G"G,B, DG EF GA | "C"^Ad ^cd/c/ BG EG | "D"Bd ^cd BG ED |1 G6 g2 :|2 G6 ^A2 | 
"B7"B^c df a2 a2 | B^c df b2 (3aba | "E7"^g2 (3gag f2 (3fgf | ed B^G E2 ^cE | 
"A7"A^c aA ca Ac | ag fe ^cA Bc | "D"dA cB AF EF | Bc AF ED EF | "G"GF GA B^A Bc | 
d^c de fe fa | (3gag ed (3BdB AG | (3EGE DB, "Gdim"^A,2 A,=A, | "G"G,B, DG EF GA | 
"C"^Ad (3^cdc BG EG | "D"Bd BG G2 F2 | "G"G8 | "G"[g8B8] | "Gdim"[e4^A4] Bc/B/ =A2 | 
"G"[g8B8] | "Gdim"[e8^A8] | "G"[g4B4] "Gdim"[e4^A4] | "G"[g4B4] "Gdim"[e3^A3]A | 
"D"Bd ^c^A BG ED | "G"G8 | 


